public/global.svg

<svg width="16" height="17" viewBox="0 0 16 17" fill="none" xmlns="http://www.w3.org/2000/svg">
<path d="M8.28595 16.5C9.50947 16.3258 10.5821 15.0462 11.257 13.1565C10.2813 12.9376 9.28565 12.8201 8.28595 12.8061V16.5Z" fill="#757575"/>
<path d="M10.2407 16.1995C10.313 16.1785 10.385 16.1573 10.4565 16.1341C10.5169 16.1147 10.5763 16.0937 10.6358 16.0728C10.7062 16.0485 10.7763 16.0235 10.8461 15.9969C10.9056 15.9742 10.9645 15.9501 11.0235 15.9261C11.0917 15.8974 11.1597 15.8689 11.227 15.8402C11.2858 15.8143 11.3441 15.7872 11.4025 15.7599C11.4685 15.7287 11.5343 15.6969 11.5995 15.6639C11.6567 15.6347 11.7138 15.6049 11.7711 15.5742C11.8352 15.5398 11.8988 15.5047 11.9621 15.4686C12.0193 15.4361 12.0745 15.4035 12.1302 15.37C12.1922 15.3318 12.2539 15.2936 12.3152 15.2554C12.3701 15.2204 12.4248 15.1849 12.4788 15.1482C12.5392 15.1075 12.5986 15.0651 12.6578 15.0227C12.711 14.9845 12.7639 14.9465 12.8159 14.9081C12.8731 14.8639 12.9318 14.8182 12.9892 14.7723C13.0401 14.7316 13.0909 14.6912 13.1411 14.6493C13.1982 14.6018 13.2529 14.5525 13.3083 14.5033C13.3569 14.46 13.4058 14.4172 13.4533 14.3729C13.5079 14.3218 13.5611 14.2689 13.6143 14.2165C13.6603 14.1709 13.707 14.1259 13.7521 14.0792C13.7604 14.0705 13.7684 14.0612 13.7771 14.0522C13.1534 13.7295 12.4964 13.4761 11.8177 13.2967C11.4648 14.4246 10.8366 15.4468 9.99019 16.2702C10.0134 16.2642 10.0365 16.2593 10.0597 16.2533C10.1209 16.2361 10.1809 16.2172 10.2407 16.1995Z" fill="#757575"/>
<path d="M16 8.78651H12.5714C12.5584 10.1279 12.3642 11.4613 11.9941 12.7505C12.7489 12.9526 13.4773 13.243 14.1642 13.6159C15.2921 12.2537 15.9377 10.5555 16 8.78651Z" fill="#757575"/>
<path d="M8.28595 8.21346H11.9995C11.985 6.91949 11.7955 5.63349 11.4365 4.39045C10.4025 4.62675 9.34639 4.75294 8.28595 4.76693V8.21346Z" fill="#757575"/>
<path d="M8.28595 0.5V4.19388C9.28565 4.17975 10.2813 4.06237 11.257 3.84342C10.5821 1.95374 9.50947 0.67418 8.28595 0.5Z" fill="#757575"/>
<path d="M8.28595 12.233C9.34639 12.2472 10.4025 12.3734 11.4365 12.6097C11.7955 11.3666 11.985 10.0805 11.9995 8.78651H8.28595V12.233Z" fill="#757575"/>
<path d="M14.1642 3.38412C13.4773 3.75696 12.7489 4.0474 11.9941 4.24942C12.3642 5.53864 12.5584 6.87206 12.5714 8.21346H16C15.9376 6.44466 15.292 4.74636 14.1642 3.38412Z" fill="#757575"/>
<path d="M13.7779 2.94944C13.7695 2.9409 13.7616 2.93167 13.7533 2.92286C13.7081 2.87613 13.6612 2.83108 13.6151 2.78561C13.562 2.73315 13.5091 2.68012 13.4544 2.6292C13.4071 2.58499 13.358 2.54316 13.3095 2.49909C13.254 2.44984 13.1986 2.40018 13.1416 2.35261C13.0922 2.31078 13.0415 2.27076 12.9913 2.23061C12.934 2.18416 12.8754 2.138 12.8164 2.09365C12.7648 2.05461 12.7124 2.01684 12.6598 1.97906C12.6 1.93597 12.54 1.89302 12.4791 1.85203C12.4256 1.81594 12.3713 1.78068 12.317 1.74612C12.2552 1.70625 12.1934 1.66722 12.1305 1.62944C12.0753 1.59629 12.0196 1.56355 11.9638 1.53179C11.8998 1.49514 11.8357 1.4596 11.7711 1.4249C11.7138 1.39622 11.6567 1.36503 11.5995 1.33635C11.5337 1.30305 11.4674 1.27101 11.3994 1.23953C11.3422 1.21225 11.2841 1.18567 11.2252 1.15979C11.1574 1.12971 11.089 1.10257 11.0208 1.07389C10.9618 1.04982 10.9032 1.02604 10.8437 1.00337C10.7743 0.976793 10.7039 0.95189 10.6336 0.927546C10.5741 0.906561 10.5146 0.885715 10.4543 0.866129C10.3828 0.842904 10.3113 0.821779 10.2379 0.800514C10.1784 0.783026 10.1186 0.765258 10.0585 0.749309C10.0354 0.743013 10.012 0.738116 9.98879 0.732101C10.8352 1.55558 11.4632 2.57757 11.8163 3.70562C12.4957 3.52626 13.1536 3.27276 13.7779 2.94944Z" fill="#757575"/>
<path d="M0 8.21346H3.42859C3.44158 6.87206 3.63579 5.53864 4.00579 4.24942C3.25113 4.04754 2.52271 3.7571 1.83577 3.38412C0.70789 4.74622 0.062272 6.44466 0 8.21346Z" fill="#757575"/>
<path d="M7.71405 16.5V12.8061C6.71435 12.8202 5.71869 12.9376 4.74301 13.1565C5.41781 15.0462 6.49053 16.3258 7.71405 16.5Z" fill="#757575"/>
<path d="M7.71405 8.78651H4.00049C4.01501 10.0805 4.20434 11.3666 4.56345 12.6097C5.5975 12.3732 6.65347 12.247 7.71405 12.233V8.78651Z" fill="#757575"/>
<path d="M7.71405 0.5C6.49053 0.67418 5.41781 1.95374 4.74301 3.84342C5.71869 4.06251 6.71435 4.17989 7.71405 4.19388V0.5Z" fill="#757575"/>
<path d="M7.71405 4.76693C6.65361 4.75294 5.5975 4.62675 4.56345 4.39045C4.20434 5.63349 4.01501 6.91949 4.00049 8.21346H7.71405V4.76693Z" fill="#757575"/>
<path d="M6.00897 0.731821C5.98579 0.737837 5.96262 0.742733 5.93944 0.748749C5.87884 0.764978 5.81908 0.783026 5.75877 0.800514C5.687 0.821499 5.61579 0.842625 5.54375 0.865569C5.48301 0.885295 5.42325 0.906281 5.36349 0.927127C5.29354 0.95189 5.22345 0.976513 5.1542 1.00281C5.09444 1.02576 5.03552 1.04954 4.97632 1.07389C4.90832 1.10257 4.84018 1.13125 4.77302 1.15979C4.7141 1.18567 4.65588 1.21281 4.59752 1.24009C4.53148 1.27129 4.46571 1.30305 4.40051 1.33607C4.34326 1.36531 4.28602 1.39525 4.22891 1.42574C4.16483 1.46016 4.1013 1.49542 4.03819 1.53151C3.98094 1.56355 3.92467 1.59643 3.86952 1.63C3.80739 1.6675 3.74596 1.70625 3.6848 1.74459C3.62979 1.77984 3.5752 1.81538 3.52116 1.85203C3.46084 1.89274 3.40136 1.93513 3.34216 1.97753C3.28897 2.01572 3.23605 2.05377 3.18397 2.09225C3.12547 2.13632 3.06962 2.1822 3.0107 2.22795C2.95988 2.26867 2.90863 2.3091 2.85893 2.35121C2.80168 2.3985 2.74737 2.44746 2.69222 2.49643C2.64335 2.54008 2.59406 2.58247 2.54631 2.62766C2.492 2.67844 2.43908 2.73119 2.38602 2.78351C2.33995 2.82912 2.29303 2.87417 2.2478 2.92104C2.23956 2.92971 2.2316 2.93922 2.22294 2.94804C2.8465 3.27094 3.50357 3.5243 4.18228 3.70366C4.53525 2.57631 5.16299 1.55488 6.00897 0.731821Z" fill="#757575"/>
<path d="M2.38477 14.2144C2.43796 14.2668 2.49088 14.3198 2.54547 14.3709C2.59295 14.415 2.64181 14.4568 2.69054 14.5009C2.74597 14.5503 2.8014 14.5998 2.85837 14.6474C2.9078 14.6889 2.9582 14.7291 3.00874 14.7694C3.06599 14.8158 3.1231 14.862 3.18369 14.9066C3.23521 14.9454 3.28757 14.9829 3.33993 15.0213C3.39969 15.0643 3.46001 15.1072 3.52088 15.1485C3.57436 15.1846 3.62867 15.2199 3.68299 15.2545C3.74484 15.2943 3.80655 15.3333 3.86952 15.3711C3.92467 15.4044 3.98038 15.437 4.03623 15.4689C4.10018 15.5055 4.16427 15.5411 4.22891 15.5756C4.28602 15.6043 4.34326 15.6355 4.40051 15.6642C4.46627 15.6975 4.53259 15.7295 4.60059 15.7611C4.65784 15.7881 4.71592 15.8147 4.77484 15.8407C4.84256 15.8708 4.91083 15.898 4.97925 15.9266C5.03817 15.9507 5.09681 15.9745 5.15629 15.9972C5.22568 16.0239 5.29605 16.0488 5.36642 16.0731C5.4259 16.094 5.48538 16.115 5.5457 16.1344C5.61719 16.1576 5.68867 16.1789 5.76212 16.2C5.8216 16.2175 5.88135 16.2353 5.94139 16.2514C5.96457 16.2577 5.98803 16.2626 6.0112 16.2686C5.16481 15.445 4.53678 14.423 4.18367 13.2949C3.50497 13.4744 2.8479 13.7278 2.22434 14.0508C2.23272 14.0593 2.24068 14.0686 2.24905 14.0774C2.29192 14.1238 2.33813 14.1689 2.38477 14.2144Z" fill="#757575"/>
<path d="M1.83577 13.6159C2.52271 13.243 3.25113 12.9526 4.00579 12.7505C3.63579 11.4613 3.44158 10.1279 3.42859 8.78651H0C0.0624117 10.5553 0.70789 12.2536 1.83577 13.6159Z" fill="#757575"/>
</svg>

<?xml version="1.0"?>
<!--Icons from directory ""-->
<svg xmlns="http://www.w3.org/2000/svg" width="16" height="17" viewBox="0 0 16 17"><svg width="16" height="17" fill="none" id="global" y="0"><path d="M8.286 16.5c1.223-.174 2.296-1.454 2.971-3.344a14.5 14.5 0 00-2.971-.35V16.5zM10.24 16.2c.073-.021.145-.043.216-.066l.18-.061c.07-.024.14-.05.21-.076l.178-.07.203-.087a8.626 8.626 0 00.735-.371 7.808 7.808 0 00.696-.446l.158-.115.173-.136c.051-.04.102-.08.152-.123.057-.047.112-.096.167-.146.049-.043.098-.086.145-.13.055-.051.108-.104.161-.156.046-.046.093-.091.138-.138l.025-.027a9.606 9.606 0 00-1.96-.755A7.11 7.11 0 019.99 16.27c.023-.006.046-.01.07-.017l.18-.053zM16 8.787h-3.429a14.889 14.889 0 01-.577 3.963 9.933 9.933 0 012.17.866A8.015 8.015 0 0016 8.786zM8.286 8.213h3.713a14.358 14.358 0 00-.563-3.823c-1.034.237-2.09.363-3.15.377v3.446zM8.286.5v3.694c1-.014 1.995-.132 2.971-.35C10.582 1.953 9.509.673 8.286.5zM8.286 12.233c1.06.014 2.117.14 3.15.377A14.36 14.36 0 0012 8.787H8.287v3.446zM14.164 3.384a9.932 9.932 0 01-2.17.865c.37 1.29.564 2.623.577 3.964H16a8.016 8.016 0 00-1.836-4.829zM13.778 2.95l-.025-.027c-.045-.047-.092-.092-.138-.137-.053-.053-.106-.106-.16-.157l-.146-.13c-.055-.05-.11-.099-.167-.146-.05-.042-.1-.082-.15-.122a6.09 6.09 0 00-.332-.252 6.92 6.92 0 00-.696-.447 8.109 8.109 0 00-.193-.107l-.171-.089a6.344 6.344 0 00-.375-.176c-.068-.03-.136-.057-.204-.086a8.153 8.153 0 00-.567-.208 7.023 7.023 0 00-.216-.065c-.06-.018-.12-.036-.18-.052-.023-.006-.046-.01-.07-.017a7.113 7.113 0 011.828 2.974 9.586 9.586 0 001.962-.757zM0 8.213h3.429c.013-1.34.207-2.674.577-3.964a9.921 9.921 0 01-2.17-.865A8.015 8.015 0 000 8.214zM7.714 16.5v-3.694c-1 .014-1.995.132-2.971.35.675 1.89 1.748 3.17 2.971 3.344zM7.714 8.787H4c.015 1.293.204 2.58.563 3.823a15.02 15.02 0 013.151-.377V8.787zM7.714.5C6.491.674 5.418 1.954 4.743 3.843c.976.22 1.971.337 2.971.35V.5zM7.714 4.767a15.033 15.033 0 01-3.15-.377A14.355 14.355 0 004 8.213h3.714V4.767zM6.009.732c-.023.006-.046.01-.07.017-.06.016-.12.034-.18.052a9.362 9.362 0 00-.215.065l-.18.061-.21.076-.178.07-.203.087a8.244 8.244 0 00-.903.47l-.185.115a7.503 7.503 0 00-.501.347c-.059.044-.114.09-.173.136-.051.04-.102.081-.152.123-.057.047-.112.096-.167.145-.049.044-.098.086-.146.132-.054.05-.107.103-.16.156-.046.045-.093.09-.138.137l-.025.027c.623.323 1.28.576 1.96.756A7.11 7.11 0 016.008.732zM2.385 14.214c.053.053.106.106.16.157l.146.13a7.662 7.662 0 00.493.406l.156.114a8.037 8.037 0 00.53.35 7.974 7.974 0 00.359.205c.057.028.114.06.172.088a6.573 6.573 0 00.374.177c.068.03.136.057.204.086a8.031 8.031 0 00.387.146c.06.021.12.042.18.061.071.024.143.045.216.066l.18.051c.023.007.046.012.07.018a7.114 7.114 0 01-1.828-2.974 9.592 9.592 0 00-1.96.756l.025.026c.043.047.09.092.136.137zM1.836 13.616a9.936 9.936 0 012.17-.865 14.892 14.892 0 01-.577-3.964H0a8.016 8.016 0 001.836 4.829z" fill="#757575"/></svg></svg>
